static/img/svg/bxs-user-detail.svg

<svg xmlns="http://www.w3.org/2000/svg" width="24" height="24"><path d="M15 11h7v2h-7zM16 15h6v2h-6zM14 7h8v2h-8zM8 12.001c1.648 0 3-1.353 3-3.001 0-1.649-1.352-3-3-3-1.647 0-3 1.351-3 3a3.013 3.013 0 0 0 3 3.001zM8 13.751c-3.295 0-6 2.281-6 4.5v.75h12v-.75c0-2.219-2.705-4.5-6-4.5z"/></svg>

<svg xmlns="http://www.w3.org/2000/svg" width="24" height="24" viewBox="0 0 24 24"><path d="M15 11H22V13H15zM16 15H22V17H16zM14 7H22V9H14zM10.98 11.701C11.613 10.999 12 10.065 12 9c0-2.28-1.72-4-4-4S4 6.72 4 9c0 1.065.387 1.999 1.02 2.701C3.151 12.657 2 14.54 2 17v1c0 .552.447 1 1 1h10c.553 0 1-.448 1-1v-1C14 14.54 12.849 12.657 10.98 11.701z"/></svg>
